X: 1
T: The Suisun Slough
T: (or, Barbara and Betty's Reel)
C: Terry Traub, Dec 1 2016
C: for Barbara McOwen and her mom, Betty Turner of Berkeley
C: who spent a delightful afternoon at the Suisun Slough, an estuary of 
C: San Francisco Bay.  (pronounced "soo-soon sloo")
L: 1/8
M: 4/4
K: A
e |: "A"dcBA "D"FAEA|"Bm"FAEA "E"cBBe|"D"dcBA "Bm"FAEA|"E"GABG "A"A2 Ae :|
"A"agfe "D"faea|"Bm"daca "E"cBBe|"D"agfe "Bm"faed|"E"cBAG "A"A2 Ae|
"A"agfe "D"faea|"Bm"daca "E"cBBe|"D"dcBA "Bm"FAEA|"E"GABG "A"A2 A |]
